public/assets/logo2.svg

<svg width="128" height="33" viewBox="0 0 128 33" fill="none" xmlns="http://www.w3.org/2000/svg">
<path d="M17.3684 4.75108C15.2579 2.64059 11.8361 2.64059 9.72564 4.75108L2.08287 12.3939C-0.0276232 14.5043 -0.0276232 17.9261 2.08287 20.0366L9.72564 27.6794C11.8361 29.7899 15.2579 29.7899 17.3684 27.6794L21.0151 24.0327C17.9793 22.8615 15.8256 19.9157 15.8256 16.4669C15.8256 12.8807 18.1544 9.8384 21.3822 8.7697C21.319 8.70335 21.2549 8.6376 21.1898 8.57247L17.3684 4.75108Z" fill="#A9A9A9"/>
<path d="M21.0154 24.0353C21.9204 24.3843 22.9038 24.5757 23.9319 24.5757C28.4089 24.5757 32.0383 20.9464 32.0383 16.4694C32.0383 11.9923 28.4089 8.36298 23.9319 8.36298C23.0412 8.36298 22.1841 8.50662 21.3825 8.772C25.4102 13.0063 25.3461 19.7045 21.1902 23.8604L21.0154 24.0353Z" fill="#9A9A9A"/>
<path d="M47.5218 22.2926L46.5369 19.4837H41.4481L40.4449 22.2926H37.6543L42.5789 9.19672H45.6067L50.4948 22.2926H47.5218ZM44.0198 12.2245L42.2324 17.2768H45.7708L44.0198 12.2245Z" fill="#0E0E0E"/>
<path d="M53.6952 22.2926H51.1417V9.19672H53.6952V22.2926Z" fill="#0E0E0E"/>
<path d="M64.9608 17.4227C64.9608 20.3045 63.2645 22.475 60.638 22.475C59.489 22.475 58.504 21.9825 57.7745 21.0341V25.8128H55.2392V12.5528H57.5738V13.9754C58.3216 12.9358 59.3978 12.3704 60.638 12.3704C63.2645 12.3704 64.9608 14.5591 64.9608 17.4227ZM62.3525 17.4227C62.3525 15.5987 61.3129 14.6138 60.0726 14.6138C58.8323 14.6138 57.7927 15.5805 57.7927 17.4227C57.7927 19.2648 58.8323 20.2133 60.0726 20.2133C61.3129 20.2133 62.3525 19.2831 62.3525 17.4227Z" fill="#0E0E0E"/>
<path d="M68.391 16.9849V22.2926H65.8558V9.19672H68.391V13.8295C69.0659 12.9358 69.9049 12.3704 71.1817 12.3704C73.1333 12.3704 74.483 13.6471 74.483 16V22.2926H71.966V16.8572C71.966 15.4163 71.4005 14.6138 70.2515 14.6138C69.2483 14.6138 68.391 15.4163 68.391 16.9849Z" fill="#0E0E0E"/>
<path d="M81.7381 22.2926V21.0888C81.0997 22.0007 80.1331 22.475 78.8016 22.475C76.777 22.475 75.4273 21.2894 75.4273 19.4655C75.4273 17.5686 76.9594 16.5472 79.8048 16.5472C80.3519 16.5472 80.8262 16.5837 81.4281 16.6566V16.073C81.4281 14.9786 80.8079 14.3402 79.75 14.3402C78.6557 14.3402 77.9991 14.9786 77.9079 16.073H75.6279C75.7738 13.8295 77.3972 12.3704 79.75 12.3704C82.3035 12.3704 83.7992 13.7748 83.7992 16.1642V22.2926H81.7381ZM77.8167 19.3925C77.8167 20.2133 78.4003 20.724 79.3488 20.724C80.6438 20.724 81.4281 20.0127 81.4281 18.8818V18.1887C80.8262 18.0975 80.4067 18.061 79.9689 18.061C78.528 18.061 77.8167 18.517 77.8167 19.3925Z" fill="#0E0E0E"/>
<path d="M94.5052 22.2926L92.0612 13.1364L89.6171 22.2926H86.8082L83.4522 9.19672H86.1516L88.2674 18.0793L90.675 9.19672H93.5021L95.8367 18.1158L97.9707 9.19672H100.688L97.3141 22.2926H94.5052Z" fill="#0E0E0E"/>
<path d="M106.373 22.2926V21.0888C105.735 22.0007 104.768 22.475 103.437 22.475C101.412 22.475 100.063 21.2894 100.063 19.4655C100.063 17.5686 101.595 16.5472 104.44 16.5472C104.987 16.5472 105.461 16.5837 106.063 16.6566V16.073C106.063 14.9786 105.443 14.3402 104.385 14.3402C103.291 14.3402 102.634 14.9786 102.543 16.073H100.263C100.409 13.8295 102.032 12.3704 104.385 12.3704C106.939 12.3704 108.434 13.7748 108.434 16.1642V22.2926H106.373ZM102.452 19.3925C102.452 20.2133 103.036 20.724 103.984 20.724C105.279 20.724 106.063 20.0127 106.063 18.8818V18.1887C105.461 18.0975 105.042 18.061 104.604 18.061C103.163 18.061 102.452 18.517 102.452 19.3925Z" fill="#0E0E0E"/>
<path d="M118.324 12.5528L114.749 22.2926H111.977L108.384 12.5528H111.12L113.436 19.4108L115.771 12.5528H118.324Z" fill="#0E0E0E"/>
<path d="M122.6 22.4567C119.682 22.4567 117.73 20.4322 117.73 17.3862C117.73 14.4861 119.755 12.3704 122.564 12.3704C125.646 12.3704 127.689 14.8692 127.233 18.0428H120.32C120.485 19.6296 121.251 20.5051 122.546 20.5051C123.658 20.5051 124.406 19.9579 124.698 18.9913H127.215C126.668 21.1982 124.971 22.4567 122.6 22.4567ZM122.509 14.2308C121.324 14.2308 120.576 14.9968 120.357 16.4377H124.552C124.479 15.088 123.713 14.2308 122.509 14.2308Z" fill="#0E0E0E"/>
</svg>

<svg xmlns="http://www.w3.org/2000/svg" width="128" height="33" fill="none" viewBox="0 0 128 33"><path fill="#a9a9a9" d="M17.368 4.751a5.404 5.404 0 0 0-7.642 0l-7.643 7.643a5.404 5.404 0 0 0 0 7.643l7.643 7.642a5.404 5.404 0 0 0 7.642 0l3.647-3.646a8.11 8.11 0 0 1 .367-15.263l-.192-.198z"/><path fill="#9a9a9a" d="M21.015 24.035a8.1 8.1 0 0 0 2.917.54 8.106 8.106 0 1 0-2.55-15.803c4.028 4.234 3.964 10.933-.192 15.088z"/><path fill="#0e0e0e" d="m47.522 22.293-.985-2.81h-5.089l-1.003 2.81h-2.79l4.924-13.096h3.028l4.888 13.096zM44.02 12.225l-1.788 5.052h3.539zm9.675 10.068h-2.553V9.197h2.553zm11.265-4.87c0 2.882-1.695 5.052-4.322 5.052-1.149 0-2.134-.492-2.863-1.44v4.778h-2.536v-13.26h2.335v1.422c.748-1.04 1.824-1.605 3.064-1.605 2.627 0 4.323 2.19 4.323 5.053m-2.607 0c0-1.824-1.04-2.81-2.28-2.81s-2.28.968-2.28 2.81 1.04 2.79 2.28 2.79 2.28-.93 2.28-2.79m6.037-.438v5.308h-2.535V9.197h2.535v4.633c.675-.894 1.514-1.46 2.79-1.46 1.952 0 3.302 1.277 3.302 3.63v6.293h-2.517v-5.436c0-1.44-.566-2.243-1.715-2.243-1.003 0-1.86.802-1.86 2.37m13.347 5.309v-1.204c-.638.912-1.605 1.386-2.936 1.386-2.025 0-3.375-1.186-3.375-3.01 0-1.896 1.532-2.918 4.378-2.918.547 0 1.021.037 1.623.11v-.584c0-1.094-.62-1.733-1.678-1.733-1.094 0-1.75.639-1.842 1.733h-2.28c.146-2.244 1.77-3.703 4.122-3.703 2.553 0 4.05 1.405 4.05 3.794v6.129zm-3.921-2.9c0 .82.583 1.331 1.532 1.331 1.295 0 2.08-.711 2.08-1.842v-.693a9 9 0 0 0-1.46-.128c-1.441 0-2.152.456-2.152 1.331m16.688 2.901-2.444-9.157-2.444 9.157h-2.809L83.452 9.197h2.7l2.115 8.882 2.408-8.882h2.827l2.335 8.919 2.134-8.92h2.717l-3.374 13.097zm11.868 0v-1.204c-.638.912-1.605 1.386-2.936 1.386-2.025 0-3.374-1.186-3.374-3.01 0-1.896 1.532-2.918 4.377-2.918.547 0 1.021.037 1.623.11v-.584c0-1.094-.62-1.733-1.678-1.733-1.094 0-1.751.639-1.842 1.733h-2.28c.146-2.244 1.769-3.703 4.122-3.703 2.554 0 4.049 1.405 4.049 3.794v6.129zm-3.921-2.9c0 .82.584 1.331 1.532 1.331 1.295 0 2.079-.711 2.079-1.842v-.693a9 9 0 0 0-1.459-.128c-1.441 0-2.152.456-2.152 1.331m15.872-6.839-3.575 9.74h-2.772l-3.593-9.74h2.736l2.316 6.858 2.335-6.858zm4.276 9.904c-2.918 0-4.87-2.025-4.87-5.07 0-2.9 2.025-5.017 4.834-5.017 3.082 0 5.125 2.5 4.669 5.673h-6.913c.165 1.587.931 2.462 2.226 2.462 1.112 0 1.86-.547 2.152-1.514h2.517c-.547 2.207-2.244 3.466-4.615 3.466m-.091-8.226c-1.185 0-1.933.766-2.152 2.207h4.195c-.073-1.35-.839-2.207-2.043-2.207"/></svg>
